packages/ui-icons/src/Basic/24/Lightbulb_24.svg

<svg xmlns="http://www.w3.org/2000/svg" viewBox="0 0 32 32"><path d="m11.6 23.72.71 4.28h7.29l.71-4.28A15.78 15.78 0 0 0 25 13.07C25 7.3 21.7 4 16 4s-9 3.3-9 9.07a15.89 15.89 0 0 0 4.6 10.65ZM17.91 26H14l-.33-2h4.57Zm-3.29-10h2.76l-1.2 6h-.36ZM16 6c3.21 0 7 1.23 7 7.07A13.82 13.82 0 0 1 19.2 22h-1l1.8-8.8-2-.39-.22 1.19h-3.56L14 12.8l-2 .39L13.78 22h-1.06A13.94 13.94 0 0 1 9 13.07C9 8.38 11.34 6 16 6Z"/></svg>

<svg id="Ready" xmlns="http://www.w3.org/2000/svg" viewBox="0 0 32 32"><title>Megaicons_work_24_1.8_cp</title><path d="M11.6,23.72,12.31,28h7.29l.71-4.28A15.78,15.78,0,0,0,25,13.07C25,7.3,21.7,4,16,4S7,7.3,7,13.07A15.89,15.89,0,0,0,11.6,23.72ZM17.91,26H14l-.33-2h4.57ZM14.62,16h2.76l-1.2,6h-.36ZM16,6c3.21,0,7,1.23,7,7.07A13.82,13.82,0,0,1,19.2,22h-1L20,13.2l-2-.39L17.78,14H14.22L14,12.8l-2,.39L13.78,22H12.72A13.94,13.94,0,0,1,9,13.07C9,8.38,11.34,6,16,6Z"/></svg>
